X:1
T:James Gibb editions
T:Veritas mea - Ravanello
T:#
%%score [ 1 2 3 ]
L:1/8
Q:1/4=84
M:4/4
K:D
V:1 treble nm="Soprano I"
V:2 treble nm="Soprano II"
V:3 treble nm="Alto I" snm="A"
V:1
"^Veritas mea, op.66/20""^Oreste Ravanello\n (1871-1938)""^andante"!p! d3 d d4 | (Bc d4 c2) | %2
w: Ve- ri- tas|me\- * * *|
"^," d4 d2 d2 | e2 g2 f2 ed |[M:4/4] (c4 Bc)df | (e2 cd e2 B2) | c4 z4 | z4!f! d2 d2 | %8
w: a, et mi-|se- ri- cor- di- a|me\- * * a cum|i\- * * * *|so:|et in|
 f2 ed (cdef | g2 fe)"^," d2!ff! ff | e3 e e2 cc | d3 d d4 | d3 d (dc/B/ c2) | %13
w: no- mi- ne me\- * * *|* * * o, e- xal-|ta- bi- tur, e- xal-|ta- bi- tur|cor- nu e\- * * *|
"^," d2"^rall."[Q:1/4=81] d4[Q:1/4=78] B2 |[Q:1/4=73] A8 | %15
w: ius, cor- nu|e-|
[Q:1/4=70] !fermata!A4"^tempo Imo"[Q:1/4=84] A2 A2 | d4"^," A2 d2- | d2 d4 c2 | !fermata!d8 |] %19
w: ius. Al- le-|lu- ia, al\-|* le- lu-|ia.|
V:2
!p! F6 GA | (B3 A)"^," G4 | F2 F2 B2 A2 | (GABc d2) cB |[M:4/4] ^A4 B3 =A | (^G2 A4 G2) | %6
w: Ve- ri- tas|me\- * a,|et mi- se- ri-|cor\- * * * * di- a|me- a cum|i\- * *|
 A4!f! A2 A2 | B2 A=G (FAdc | BA GF/G/ AB c2 | d2 c2)"^," d2!ff! dd | c3 c c2 AA | A3 A G2 (GA | %12
w: so: et in|no- mi- ne me\- * * *||* * o, e- xal-|ta- bi- tur, e- xal-|ta- bi- tur cor\- *|
 BA/G/) A2 G4 |"^," F2 G4 G2 | (G2 F2 E4) | !fermata!F4 F2 F2 | A4"^," F2 F2- | F2 B2 E4 | %18
w: * * * nu e-|ius, cor- nu|e\- * *|ius. Al- le-|lu- ia, al\-|* le- lu-|
 !fermata!F8 |] %19
w: ia.|
V:3
!p! D6 EF | (G3 F)"^," E4 | D2 D2 G2 F2 | E4 B,2 E2 |[M:4/4] (F2 E2) (DC) (B,D) | (E2 F2 E4) | %6
w: Ve- ri- tas|me\- * a,|et mi- se- ri-|cor- di- a|me\- * a * cum *|i\- * *|
 A,4 z4 | z8 | z4!f! A2 A2 | B2 AG (F2 D2) |"^," A2!ff! A,A, A3 G | F2 FF B3 A | G2 F (E/D/) E4 | %13
w: so:||et in|no- mi- ne me\- *|o, e- xal- ta- bi-|tur, e- xal- ta- bi-|tur cor- nu * e-|
"^," B,2 B,4 (ED) | (C2 D4 C2) | !fermata!D4 D2 D2 | F4"^," D2 B,2- | B,2 G,2 A,4 | !fermata!D8 |] %19
w: ius, cor- nu *|e\- * *|ius. Al- le-|lu- ia, al\-|* le- lu-|ia.|

